X:430
T: ESKANN JA NICHT IMMER SO BLEIBEN
N: E0353C
O: Europa, Mitteleuropa, Deutschland, Hessen, Nassau
R: historisches Lied, Krieg, Soldaten (1813 und 1870)
M: 4/4
L: 1/16
K: F
F2G2 | A4A2A2A2c2B2A2 | c2G2G4z4
G2A2 | B4B2B2d4c2B2 | c8z4
F4 | d4d2d2f4e2d2 | d2c2c4z4
c2f2 | f2c2A2d2c4B3G | F8z4
F4 | d4d2d2f4e2d2 | d2c2c4z4
c2f2 | f2c2A2d2c4B3G | F8z4

